dist/img/common/right-arrow.svg

<svg width="83" height="83" viewBox="0 0 83 83" fill="none" xmlns="http://www.w3.org/2000/svg">
<g clip-path="url(#clip0)">
<path d="M58.8478 13.7696C58.6719 13.7811 58.4999 13.8272 58.3419 13.9054L38.0101 23.9331C37.3541 24.2708 37.0963 25.0764 37.434 25.7324C37.7636 26.3723 38.5407 26.6361 39.1917 26.3289L56.6331 17.7268L48.224 42.5027C42.7546 58.5575 25.3216 67.1555 9.25455 61.7225C8.55592 61.4854 7.79729 61.8595 7.56017 62.5582C7.32306 63.2568 7.69725 64.0153 8.39588 64.2524C25.8602 70.1581 44.8092 60.8124 50.7539 43.3614L59.163 18.5855L67.7634 36.0234C68.0782 36.6906 68.8744 36.9763 69.5416 36.6614C70.2088 36.3466 70.4945 35.5504 70.1796 34.8832C70.173 34.8692 70.1662 34.8554 70.1592 34.8418L60.1315 14.5099C59.8931 14.0248 59.3857 13.7312 58.8462 13.7662L58.8478 13.7696Z" fill="#2196F3"/>
<path d="M70.2277 35.8637C69.9919 36.5628 69.2339 36.9382 68.5348 36.7024C68.1978 36.5887 67.9201 36.3452 67.7631 36.026L58.328 16.8911L39.1948 26.3298C38.5276 26.6446 37.7315 26.3588 37.4166 25.6916C37.1095 25.0406 37.3733 24.2635 38.0132 23.934L58.345 13.9063C59.0066 13.5801 59.8073 13.8519 60.1338 14.5134L70.1614 34.8452C70.3174 35.1625 70.3413 35.5288 70.2277 35.8637Z" fill="#E74F2F"/>
<path d="M60.1994 15.5318L50.7539 43.3614C44.8091 60.8124 25.8602 70.1581 8.39588 64.2524C7.69725 64.0153 7.3231 63.2567 7.56021 62.558C7.79733 61.8594 8.55596 61.4853 9.25459 61.7224C25.3216 67.1554 42.7547 58.5574 48.2239 42.5026L57.6694 14.673C57.9065 13.9744 58.6651 13.6002 59.3638 13.8374C60.0624 14.0746 60.4365 14.8332 60.1994 15.5318Z" fill="#E74F2F"/>
</g>
<defs>
<clipPath id="clip0">
<rect width="64.1236" height="64.1236" fill="white" transform="translate(0.8125 61.6786) rotate(-71.2525)"/>
</clipPath>
</defs>
</svg>

<svg width="83" height="83" viewBox="0 0 83 83" fill="none" xmlns="http://www.w3.org/2000/svg"><g clip-path="url(#clip0)"><path d="M58.848 13.77a1.337 1.337 0 00-.506.135L38.01 23.933a1.336 1.336 0 001.182 2.396l17.441-8.602-8.409 24.776c-5.47 16.054-22.902 24.653-38.97 19.22a1.336 1.336 0 00-.858 2.53c17.464 5.905 36.413-3.44 42.358-20.892l8.409-24.775 8.6 17.437a1.336 1.336 0 102.396-1.181L60.131 14.51a1.336 1.336 0 00-1.285-.744l.002.004z" fill="#2196F3"/><path d="M70.228 35.864a1.336 1.336 0 01-2.465.162l-9.435-19.135-19.133 9.439a1.336 1.336 0 01-1.182-2.396l20.332-10.028a1.336 1.336 0 011.789.607L70.16 34.845c.156.318.18.684.067 1.019z" fill="#E74F2F"/><path d="M60.2 15.532l-9.446 27.83c-5.945 17.45-24.894 26.796-42.358 20.89a1.336 1.336 0 01.859-2.53c16.067 5.433 33.5-3.165 38.969-19.22l9.445-27.829a1.336 1.336 0 112.53.859z" fill="#E74F2F"/></g><defs><clipPath id="clip0"><path fill="#fff" transform="rotate(-71.252 43.44 30.272)" d="M0 0h64.124v64.124H0z"/></clipPath></defs></svg>
